src/svg/thermometer.svg

<svg version="1.2" baseProfile="tiny" xmlns="http://www.w3.org/2000/svg" width="24" height="24" viewBox="0 0 24 24"><g><path d="M13 15.071v-5.571c0-.275-.225-.5-.5-.5s-.5.225-.5.5v5.571c-.86.224-1.5 1-1.5 1.929 0 1.103.896 2 2 2s2-.897 2-2c0-.929-.64-1.705-1.5-1.929zM16 13.459v-7.959c0-1.93-1.57-3.5-3.5-3.5s-3.5 1.57-3.5 3.5v7.959c-.922.902-1.5 2.151-1.5 3.541 0 2.757 2.243 5 5 5s5-2.243 5-5c0-1.39-.578-2.639-1.5-3.541zm-3.5 6.541c-1.654 0-3-1.346-3-3 0-1.105.607-2.062 1.5-2.583v-8.917c0-.827.673-1.5 1.5-1.5s1.5.673 1.5 1.5v8.917c.893.521 1.5 1.478 1.5 2.583 0 1.654-1.346 3-3 3z"/></g></svg>

<?xml version="1.0" encoding="iso-8859-1"?>
<!-- Generator: Adobe Illustrator 16.2.1, SVG Export Plug-In . SVG Version: 6.00 Build 0)  -->
<svg version="1.2" baseProfile="tiny" xmlns="http://www.w3.org/2000/svg" xmlns:xlink="http://www.w3.org/1999/xlink" x="0px"
	 y="0px" width="24px" height="24px" viewBox="0 0 24 24" xml:space="preserve">
<g id="Layer_1">
	<g>
		<path d="M13,15.071V9.5C13,9.225,12.775,9,12.5,9S12,9.225,12,9.5v5.571c-0.86,0.224-1.5,1-1.5,1.929c0,1.103,0.896,2,2,2
			s2-0.897,2-2C14.5,16.071,13.86,15.295,13,15.071z"/>
		<path d="M16,13.459V5.5C16,3.57,14.43,2,12.5,2S9,3.57,9,5.5v7.959C8.078,14.361,7.5,15.61,7.5,17c0,2.757,2.243,5,5,5
			s5-2.243,5-5C17.5,15.61,16.922,14.361,16,13.459z M12.5,20c-1.654,0-3-1.346-3-3c0-1.105,0.607-2.062,1.5-2.583V5.5
			C11,4.673,11.673,4,12.5,4S14,4.673,14,5.5v8.917c0.893,0.521,1.5,1.478,1.5,2.583C15.5,18.654,14.154,20,12.5,20z"/>
	</g>
</g>
<g id="nyt_x5F_exporter_x5F_info" display="none">
</g>
</svg>
